X:1761
T:The Merry Gardener
M:C|
L:1/8
N:"collected by J. O'Neill"
B:O'Neill's 1761
R:Hornpipe
Z:"Transcribed by Bob Safranek, rjs@gsp.org"
K:F
   A>B | {d}c>AG>A F2 D>E | F>GA>c    f2 f>g | a>gf>d c>AF>A | d>cA>F G>BA>G |
            F>ED>E F>GA>c | d>fe>g    f2 e>d | c>AG>F G>BA>G | F2 F2  F2    :|
|: c>B |    A>FA>c f>ag>f | e>gf>d    c2 d>e | f>dc>A B>AB>c | A>FB>A G2 c>B |
            A>cf>a b>ge>c | a>fc>A {c}B2 c>B | A>cf>c d>BG>E | F2 F2  F2    :|


